( Made using CamBam - http://www.cambam.co.uk )
( carussel 4/30/2016 12:39:14 PM )
( T6 : 5.95 )
G21 G90 G64 G40
G0 Z3.0
( T6 : 5.95 )
T6 M6
( Holes )
G17
M3 S1000
G0 X-35.175 Y0.0
G1 F300.0 Z-2.0
G2 F800.0 X-49.9125 Y-8.5087 I-9.825 J0.0
G2 Y8.5087 I4.9125 J8.5087
G2 X-35.175 Y0.0 I4.9125 J-8.5087
G1 F300.0 Z-4.0
G2 F800.0 X-49.9125 Y-8.5087 I-9.825 J0.0
G2 Y8.5087 I4.9125 J8.5087
G2 X-35.175 Y0.0 I4.9125 J-8.5087
G1 F300.0 Z-6.0
G2 F800.0 X-49.9125 Y-8.5087 I-9.825 J0.0
G2 Y8.5087 I4.9125 J8.5087
G2 X-35.175 Y0.0 I4.9125 J-8.5087
G1 F300.0 Z-8.0
G2 F800.0 X-49.9125 Y-8.5087 I-9.825 J0.0
G2 Y8.5087 I4.9125 J8.5087
G2 X-35.175 Y0.0 I4.9125 J-8.5087
G1 F300.0 Z-10.0
G2 F800.0 X-49.9125 Y-8.5087 I-9.825 J0.0
G2 Y8.5087 I4.9125 J8.5087
G2 X-35.175 Y0.0 I4.9125 J-8.5087
G1 F300.0 Z-12.0
G2 F800.0 X-49.9125 Y-8.5087 I-9.825 J0.0
G2 Y8.5087 I4.9125 J8.5087
G2 X-35.175 Y0.0 I4.9125 J-8.5087
G1 F300.0 Z-14.0
G2 F800.0 X-49.9125 Y-8.5087 I-9.825 J0.0
G2 Y8.5087 I4.9125 J8.5087
G2 X-35.175 Y0.0 I4.9125 J-8.5087
G1 F300.0 Z-16.0
G2 F800.0 X-49.9125 Y-8.5087 I-9.825 J0.0
G2 Y8.5087 I4.9125 J8.5087
G2 X-35.175 Y0.0 I4.9125 J-8.5087
G1 F300.0 Z-18.0
G2 F800.0 X-49.9125 Y-8.5087 I-9.825 J0.0
G2 Y8.5087 I4.9125 J8.5087
G2 X-35.175 Y0.0 I4.9125 J-8.5087
G1 F300.0 Z-20.0
G2 F800.0 X-49.9125 Y-8.5087 I-9.825 J0.0
G2 Y8.5087 I4.9125 J8.5087
G2 X-35.175 Y0.0 I4.9125 J-8.5087
G1 F300.0 Z-22.0
G2 F800.0 X-49.9125 Y-8.5087 I-9.825 J0.0
G2 Y8.5087 I4.9125 J8.5087
G2 X-35.175 Y0.0 I4.9125 J-8.5087
G1 F300.0 Z-22.5
G2 F800.0 X-49.9125 Y-8.5087 I-9.825 J0.0
G2 Y8.5087 I4.9125 J8.5087
G2 X-35.175 Y0.0 I4.9125 J-8.5087
G0 Z3.0
G0 X-32.8501 Y-22.049
G1 F300.0 Z-2.0
G2 F800.0 X-21.9948 Y-31.8198 I1.0303 J-9.7708
G2 X-36.7323 Y-40.3285 I-9.825 J0.0
G2 Y-23.3111 I4.9125 J8.5087
G2 X-32.8501 Y-22.049 I4.9125 J-8.5087
G1 F300.0 Z-4.0
G2 F800.0 X-21.9948 Y-31.8198 I1.0303 J-9.7708
G2 X-36.7323 Y-40.3285 I-9.825 J0.0
G2 Y-23.3111 I4.9125 J8.5087
G2 X-32.8501 Y-22.049 I4.9125 J-8.5087
G1 F300.0 Z-6.0
G2 F800.0 X-21.9948 Y-31.8198 I1.0303 J-9.7708
G2 X-36.7323 Y-40.3285 I-9.825 J0.0
G2 Y-23.3111 I4.9125 J8.5087
G2 X-32.8501 Y-22.049 I4.9125 J-8.5087
G1 F300.0 Z-8.0
G2 F800.0 X-21.9948 Y-31.8198 I1.0303 J-9.7708
G2 X-36.7323 Y-40.3285 I-9.825 J0.0
G2 Y-23.3111 I4.9125 J8.5087
G2 X-32.8501 Y-22.049 I4.9125 J-8.5087
G1 F300.0 Z-10.0
G2 F800.0 X-21.9948 Y-31.8198 I1.0303 J-9.7708
G2 X-36.7323 Y-40.3285 I-9.825 J0.0
G2 Y-23.3111 I4.9125 J8.5087
G2 X-32.8501 Y-22.049 I4.9125 J-8.5087
G1 F300.0 Z-12.0
G2 F800.0 X-21.9948 Y-31.8198 I1.0303 J-9.7708
G2 X-36.7323 Y-40.3285 I-9.825 J0.0
G2 Y-23.3111 I4.9125 J8.5087
G2 X-32.8501 Y-22.049 I4.9125 J-8.5087
G1 F300.0 Z-14.0
G2 F800.0 X-21.9948 Y-31.8198 I1.0303 J-9.7708
G2 X-36.7323 Y-40.3285 I-9.825 J0.0
G2 Y-23.3111 I4.9125 J8.5087
G2 X-32.8501 Y-22.049 I4.9125 J-8.5087
G1 F300.0 Z-16.0
G2 F800.0 X-21.9948 Y-31.8198 I1.0303 J-9.7708
G2 X-36.7323 Y-40.3285 I-9.825 J0.0
G2 Y-23.3111 I4.9125 J8.5087
G2 X-32.8501 Y-22.049 I4.9125 J-8.5087
G1 F300.0 Z-18.0
G2 F800.0 X-21.9948 Y-31.8198 I1.0303 J-9.7708
G2 X-36.7323 Y-40.3285 I-9.825 J0.0
G2 Y-23.3111 I4.9125 J8.5087
G2 X-32.8501 Y-22.049 I4.9125 J-8.5087
G1 F300.0 Z-20.0
G2 F800.0 X-21.9948 Y-31.8198 I1.0303 J-9.7708
G2 X-36.7323 Y-40.3285 I-9.825 J0.0
G2 Y-23.3111 I4.9125 J8.5087
G2 X-32.8501 Y-22.049 I4.9125 J-8.5087
G1 F300.0 Z-22.0
G2 F800.0 X-21.9948 Y-31.8198 I1.0303 J-9.7708
G2 X-36.7323 Y-40.3285 I-9.825 J0.0
G2 Y-23.3111 I4.9125 J8.5087
G2 X-32.8501 Y-22.049 I4.9125 J-8.5087
G1 F300.0 Z-22.5
G2 F800.0 X-21.9948 Y-31.8198 I1.0303 J-9.7708
G2 X-36.7323 Y-40.3285 I-9.825 J0.0
G2 Y-23.3111 I4.9125 J8.5087
G2 X-32.8501 Y-22.049 I4.9125 J-8.5087
G0 Z3.0
G0 X-8.054 Y-39.373
G1 F300.0 Z-2.0
G2 F800.0 X-4.9125 Y-36.4913 I8.054 J-5.627
G2 X9.825 Y-45.0 I4.9125 J-8.5087
G2 X-4.9125 Y-53.5087 I-9.825 J0.0
G2 X-8.054 Y-39.373 I4.9125 J8.5087
G1 F300.0 Z-4.0
G2 F800.0 X-4.9125 Y-36.4913 I8.054 J-5.627
G2 X9.825 Y-45.0 I4.9125 J-8.5087
G2 X-4.9125 Y-53.5087 I-9.825 J0.0
G2 X-8.054 Y-39.373 I4.9125 J8.5087
G1 F300.0 Z-6.0
G2 F800.0 X-4.9125 Y-36.4913 I8.054 J-5.627
G2 X9.825 Y-45.0 I4.9125 J-8.5087
G2 X-4.9125 Y-53.5087 I-9.825 J0.0
G2 X-8.054 Y-39.373 I4.9125 J8.5087
G1 F300.0 Z-8.0
G2 F800.0 X-4.9125 Y-36.4913 I8.054 J-5.627
G2 X9.825 Y-45.0 I4.9125 J-8.5087
G2 X-4.9125 Y-53.5087 I-9.825 J0.0
G2 X-8.054 Y-39.373 I4.9125 J8.5087
G1 F300.0 Z-10.0
G2 F800.0 X-4.9125 Y-36.4913 I8.054 J-5.627
G2 X9.825 Y-45.0 I4.9125 J-8.5087
G2 X-4.9125 Y-53.5087 I-9.825 J0.0
G2 X-8.054 Y-39.373 I4.9125 J8.5087
G1 F300.0 Z-12.0
G2 F800.0 X-4.9125 Y-36.4913 I8.054 J-5.627
G2 X9.825 Y-45.0 I4.9125 J-8.5087
G2 X-4.9125 Y-53.5087 I-9.825 J0.0
G2 X-8.054 Y-39.373 I4.9125 J8.5087
G1 F300.0 Z-14.0
G2 F800.0 X-4.9125 Y-36.4913 I8.054 J-5.627
G2 X9.825 Y-45.0 I4.9125 J-8.5087
G2 X-4.9125 Y-53.5087 I-9.825 J0.0
G2 X-8.054 Y-39.373 I4.9125 J8.5087
G1 F300.0 Z-16.0
G2 F800.0 X-4.9125 Y-36.4913 I8.054 J-5.627
G2 X9.825 Y-45.0 I4.9125 J-8.5087
G2 X-4.9125 Y-53.5087 I-9.825 J0.0
G2 X-8.054 Y-39.373 I4.9125 J8.5087
G1 F300.0 Z-18.0
G2 F800.0 X-4.9125 Y-36.4913 I8.054 J-5.627
G2 X9.825 Y-45.0 I4.9125 J-8.5087
G2 X-4.9125 Y-53.5087 I-9.825 J0.0
G2 X-8.054 Y-39.373 I4.9125 J8.5087
G1 F300.0 Z-20.0
G2 F800.0 X-4.9125 Y-36.4913 I8.054 J-5.627
G2 X9.825 Y-45.0 I4.9125 J-8.5087
G2 X-4.9125 Y-53.5087 I-9.825 J0.0
G2 X-8.054 Y-39.373 I4.9125 J8.5087
G1 F300.0 Z-22.0
G2 F800.0 X-4.9125 Y-36.4913 I8.054 J-5.627
G2 X9.825 Y-45.0 I4.9125 J-8.5087
G2 X-4.9125 Y-53.5087 I-9.825 J0.0
G2 X-8.054 Y-39.373 I4.9125 J8.5087
G1 F300.0 Z-22.5
G2 F800.0 X-4.9125 Y-36.4913 I8.054 J-5.627
G2 X9.825 Y-45.0 I4.9125 J-8.5087
G2 X-4.9125 Y-53.5087 I-9.825 J0.0
G2 X-8.054 Y-39.373 I4.9125 J8.5087
G0 Z3.0
G0 X22.1665 Y-33.6484
G1 F300.0 Z-2.0
G2 F800.0 X26.9073 Y-23.3111 I9.6533 J1.8286
G2 X41.6448 Y-31.8198 I4.9125 J-8.5087
G2 X26.9073 Y-40.3285 I-9.825 J0.0
G2 X22.1665 Y-33.6484 I4.9125 J8.5087
G1 F300.0 Z-4.0
G2 F800.0 X26.9073 Y-23.3111 I9.6533 J1.8286
G2 X41.6448 Y-31.8198 I4.9125 J-8.5087
G2 X26.9073 Y-40.3285 I-9.825 J0.0
G2 X22.1665 Y-33.6484 I4.9125 J8.5087
G1 F300.0 Z-6.0
G2 F800.0 X26.9073 Y-23.3111 I9.6533 J1.8286
G2 X41.6448 Y-31.8198 I4.9125 J-8.5087
G2 X26.9073 Y-40.3285 I-9.825 J0.0
G2 X22.1665 Y-33.6484 I4.9125 J8.5087
G1 F300.0 Z-8.0
G2 F800.0 X26.9073 Y-23.3111 I9.6533 J1.8286
G2 X41.6448 Y-31.8198 I4.9125 J-8.5087
G2 X26.9073 Y-40.3285 I-9.825 J0.0
G2 X22.1665 Y-33.6484 I4.9125 J8.5087
G1 F300.0 Z-10.0
G2 F800.0 X26.9073 Y-23.3111 I9.6533 J1.8286
G2 X41.6448 Y-31.8198 I4.9125 J-8.5087
G2 X26.9073 Y-40.3285 I-9.825 J0.0
G2 X22.1665 Y-33.6484 I4.9125 J8.5087
G1 F300.0 Z-12.0
G2 F800.0 X26.9073 Y-23.3111 I9.6533 J1.8286
G2 X41.6448 Y-31.8198 I4.9125 J-8.5087
G2 X26.9073 Y-40.3285 I-9.825 J0.0
G2 X22.1665 Y-33.6484 I4.9125 J8.5087
G1 F300.0 Z-14.0
G2 F800.0 X26.9073 Y-23.3111 I9.6533 J1.8286
G2 X41.6448 Y-31.8198 I4.9125 J-8.5087
G2 X26.9073 Y-40.3285 I-9.825 J0.0
G2 X22.1665 Y-33.6484 I4.9125 J8.5087
G1 F300.0 Z-16.0
G2 F800.0 X26.9073 Y-23.3111 I9.6533 J1.8286
G2 X41.6448 Y-31.8198 I4.9125 J-8.5087
G2 X26.9073 Y-40.3285 I-9.825 J0.0
G2 X22.1665 Y-33.6484 I4.9125 J8.5087
G1 F300.0 Z-18.0
G2 F800.0 X26.9073 Y-23.3111 I9.6533 J1.8286
G2 X41.6448 Y-31.8198 I4.9125 J-8.5087
G2 X26.9073 Y-40.3285 I-9.825 J0.0
G2 X22.1665 Y-33.6484 I4.9125 J8.5087
G1 F300.0 Z-20.0
G2 F800.0 X26.9073 Y-23.3111 I9.6533 J1.8286
G2 X41.6448 Y-31.8198 I4.9125 J-8.5087
G2 X26.9073 Y-40.3285 I-9.825 J0.0
G2 X22.1665 Y-33.6484 I4.9125 J8.5087
G1 F300.0 Z-22.0
G2 F800.0 X26.9073 Y-23.3111 I9.6533 J1.8286
G2 X41.6448 Y-31.8198 I4.9125 J-8.5087
G2 X26.9073 Y-40.3285 I-9.825 J0.0
G2 X22.1665 Y-33.6484 I4.9125 J8.5087
G1 F300.0 Z-22.5
G2 F800.0 X26.9073 Y-23.3111 I9.6533 J1.8286
G2 X41.6448 Y-31.8198 I4.9125 J-8.5087
G2 X26.9073 Y-40.3285 I-9.825 J0.0
G2 X22.1665 Y-33.6484 I4.9125 J8.5087
G0 Z3.0
G0 X39.4831 Y-8.1299
G1 F300.0 Z-2.0
G2 F800.0 X40.0875 Y8.5087 I5.5169 J8.1299
G2 X54.825 Y0.0 I4.9125 J-8.5087
G2 X40.0875 Y-8.5087 I-9.825 J0.0
G2 X39.4831 Y-8.1299 I4.9125 J8.5087
G1 F300.0 Z-4.0
G2 F800.0 X40.0875 Y8.5087 I5.5169 J8.1299
G2 X54.825 Y0.0 I4.9125 J-8.5087
G2 X40.0875 Y-8.5087 I-9.825 J0.0
G2 X39.4831 Y-8.1299 I4.9125 J8.5087
G1 F300.0 Z-6.0
G2 F800.0 X40.0875 Y8.5087 I5.5169 J8.1299
G2 X54.825 Y0.0 I4.9125 J-8.5087
G2 X40.0875 Y-8.5087 I-9.825 J0.0
G2 X39.4831 Y-8.1299 I4.9125 J8.5087
G1 F300.0 Z-8.0
G2 F800.0 X40.0875 Y8.5087 I5.5169 J8.1299
G2 X54.825 Y0.0 I4.9125 J-8.5087
G2 X40.0875 Y-8.5087 I-9.825 J0.0
G2 X39.4831 Y-8.1299 I4.9125 J8.5087
G1 F300.0 Z-10.0
G2 F800.0 X40.0875 Y8.5087 I5.5169 J8.1299
G2 X54.825 Y0.0 I4.9125 J-8.5087
G2 X40.0875 Y-8.5087 I-9.825 J0.0
G2 X39.4831 Y-8.1299 I4.9125 J8.5087
G1 F300.0 Z-12.0
G2 F800.0 X40.0875 Y8.5087 I5.5169 J8.1299
G2 X54.825 Y0.0 I4.9125 J-8.5087
G2 X40.0875 Y-8.5087 I-9.825 J0.0
G2 X39.4831 Y-8.1299 I4.9125 J8.5087
G1 F300.0 Z-14.0
G2 F800.0 X40.0875 Y8.5087 I5.5169 J8.1299
G2 X54.825 Y0.0 I4.9125 J-8.5087
G2 X40.0875 Y-8.5087 I-9.825 J0.0
G2 X39.4831 Y-8.1299 I4.9125 J8.5087
G1 F300.0 Z-16.0
G2 F800.0 X40.0875 Y8.5087 I5.5169 J8.1299
G2 X54.825 Y0.0 I4.9125 J-8.5087
G2 X40.0875 Y-8.5087 I-9.825 J0.0
G2 X39.4831 Y-8.1299 I4.9125 J8.5087
G1 F300.0 Z-18.0
G2 F800.0 X40.0875 Y8.5087 I5.5169 J8.1299
G2 X54.825 Y0.0 I4.9125 J-8.5087
G2 X40.0875 Y-8.5087 I-9.825 J0.0
G2 X39.4831 Y-8.1299 I4.9125 J8.5087
G1 F300.0 Z-20.0
G2 F800.0 X40.0875 Y8.5087 I5.5169 J8.1299
G2 X54.825 Y0.0 I4.9125 J-8.5087
G2 X40.0875 Y-8.5087 I-9.825 J0.0
G2 X39.4831 Y-8.1299 I4.9125 J8.5087
G1 F300.0 Z-22.0
G2 F800.0 X40.0875 Y8.5087 I5.5169 J8.1299
G2 X54.825 Y0.0 I4.9125 J-8.5087
G2 X40.0875 Y-8.5087 I-9.825 J0.0
G2 X39.4831 Y-8.1299 I4.9125 J8.5087
G1 F300.0 Z-22.5
G2 F800.0 X40.0875 Y8.5087 I5.5169 J8.1299
G2 X54.825 Y0.0 I4.9125 J-8.5087
G2 X40.0875 Y-8.5087 I-9.825 J0.0
G2 X39.4831 Y-8.1299 I4.9125 J8.5087
G0 Z3.0
G0 X33.6707 Y22.1707
G1 F300.0 Z-2.0
G2 F800.0 X26.9073 Y23.3111 I-1.8509 J9.6491
G2 Y40.3285 I4.9125 J8.5087
G2 X41.6448 Y31.8198 I4.9125 J-8.5087
G2 X33.6707 Y22.1707 I-9.825 J0.0
G1 F300.0 Z-4.0
G2 F800.0 X26.9073 Y23.3111 I-1.8509 J9.6491
G2 Y40.3285 I4.9125 J8.5087
G2 X41.6448 Y31.8198 I4.9125 J-8.5087
G2 X33.6707 Y22.1707 I-9.825 J0.0
G1 F300.0 Z-6.0
G2 F800.0 X26.9073 Y23.3111 I-1.8509 J9.6491
G2 Y40.3285 I4.9125 J8.5087
G2 X41.6448 Y31.8198 I4.9125 J-8.5087
G2 X33.6707 Y22.1707 I-9.825 J0.0
G1 F300.0 Z-8.0
G2 F800.0 X26.9073 Y23.3111 I-1.8509 J9.6491
G2 Y40.3285 I4.9125 J8.5087
G2 X41.6448 Y31.8198 I4.9125 J-8.5087
G2 X33.6707 Y22.1707 I-9.825 J0.0
G1 F300.0 Z-10.0
G2 F800.0 X26.9073 Y23.3111 I-1.8509 J9.6491
G2 Y40.3285 I4.9125 J8.5087
G2 X41.6448 Y31.8198 I4.9125 J-8.5087
G2 X33.6707 Y22.1707 I-9.825 J0.0
G1 F300.0 Z-12.0
G2 F800.0 X26.9073 Y23.3111 I-1.8509 J9.6491
G2 Y40.3285 I4.9125 J8.5087
G2 X41.6448 Y31.8198 I4.9125 J-8.5087
G2 X33.6707 Y22.1707 I-9.825 J0.0
G1 F300.0 Z-14.0
G2 F800.0 X26.9073 Y23.3111 I-1.8509 J9.6491
G2 Y40.3285 I4.9125 J8.5087
G2 X41.6448 Y31.8198 I4.9125 J-8.5087
G2 X33.6707 Y22.1707 I-9.825 J0.0
G1 F300.0 Z-16.0
G2 F800.0 X26.9073 Y23.3111 I-1.8509 J9.6491
G2 Y40.3285 I4.9125 J8.5087
G2 X41.6448 Y31.8198 I4.9125 J-8.5087
G2 X33.6707 Y22.1707 I-9.825 J0.0
G1 F300.0 Z-18.0
G2 F800.0 X26.9073 Y23.3111 I-1.8509 J9.6491
G2 Y40.3285 I4.9125 J8.5087
G2 X41.6448 Y31.8198 I4.9125 J-8.5087
G2 X33.6707 Y22.1707 I-9.825 J0.0
G1 F300.0 Z-20.0
G2 F800.0 X26.9073 Y23.3111 I-1.8509 J9.6491
G2 Y40.3285 I4.9125 J8.5087
G2 X41.6448 Y31.8198 I4.9125 J-8.5087
G2 X33.6707 Y22.1707 I-9.825 J0.0
G1 F300.0 Z-22.0
G2 F800.0 X26.9073 Y23.3111 I-1.8509 J9.6491
G2 Y40.3285 I4.9125 J8.5087
G2 X41.6448 Y31.8198 I4.9125 J-8.5087
G2 X33.6707 Y22.1707 I-9.825 J0.0
G1 F300.0 Z-22.5
G2 F800.0 X26.9073 Y23.3111 I-1.8509 J9.6491
G2 Y40.3285 I4.9125 J8.5087
G2 X41.6448 Y31.8198 I4.9125 J-8.5087
G2 X33.6707 Y22.1707 I-9.825 J0.0
G0 Z3.0
G0 X8.1321 Y39.4863
G1 F300.0 Z-2.0
G2 F800.0 X-4.9125 Y36.4913 I-8.1321 J5.5137
G2 Y53.5087 I4.9125 J8.5087
G2 X9.825 Y45.0 I4.9125 J-8.5087
G2 X8.1321 Y39.4863 I-9.825 J0.0
G1 F300.0 Z-4.0
G2 F800.0 X-4.9125 Y36.4913 I-8.1321 J5.5137
G2 Y53.5087 I4.9125 J8.5087
G2 X9.825 Y45.0 I4.9125 J-8.5087
G2 X8.1321 Y39.4863 I-9.825 J0.0
G1 F300.0 Z-6.0
G2 F800.0 X-4.9125 Y36.4913 I-8.1321 J5.5137
G2 Y53.5087 I4.9125 J8.5087
G2 X9.825 Y45.0 I4.9125 J-8.5087
G2 X8.1321 Y39.4863 I-9.825 J0.0
G1 F300.0 Z-8.0
G2 F800.0 X-4.9125 Y36.4913 I-8.1321 J5.5137
G2 Y53.5087 I4.9125 J8.5087
G2 X9.825 Y45.0 I4.9125 J-8.5087
G2 X8.1321 Y39.4863 I-9.825 J0.0
G1 F300.0 Z-10.0
G2 F800.0 X-4.9125 Y36.4913 I-8.1321 J5.5137
G2 Y53.5087 I4.9125 J8.5087
G2 X9.825 Y45.0 I4.9125 J-8.5087
G2 X8.1321 Y39.4863 I-9.825 J0.0
G1 F300.0 Z-12.0
G2 F800.0 X-4.9125 Y36.4913 I-8.1321 J5.5137
G2 Y53.5087 I4.9125 J8.5087
G2 X9.825 Y45.0 I4.9125 J-8.5087
G2 X8.1321 Y39.4863 I-9.825 J0.0
G1 F300.0 Z-14.0
G2 F800.0 X-4.9125 Y36.4913 I-8.1321 J5.5137
G2 Y53.5087 I4.9125 J8.5087
G2 X9.825 Y45.0 I4.9125 J-8.5087
G2 X8.1321 Y39.4863 I-9.825 J0.0
G1 F300.0 Z-16.0
G2 F800.0 X-4.9125 Y36.4913 I-8.1321 J5.5137
G2 Y53.5087 I4.9125 J8.5087
G2 X9.825 Y45.0 I4.9125 J-8.5087
G2 X8.1321 Y39.4863 I-9.825 J0.0
G1 F300.0 Z-18.0
G2 F800.0 X-4.9125 Y36.4913 I-8.1321 J5.5137
G2 Y53.5087 I4.9125 J8.5087
G2 X9.825 Y45.0 I4.9125 J-8.5087
G2 X8.1321 Y39.4863 I-9.825 J0.0
G1 F300.0 Z-20.0
G2 F800.0 X-4.9125 Y36.4913 I-8.1321 J5.5137
G2 Y53.5087 I4.9125 J8.5087
G2 X9.825 Y45.0 I4.9125 J-8.5087
G2 X8.1321 Y39.4863 I-9.825 J0.0
G1 F300.0 Z-22.0
G2 F800.0 X-4.9125 Y36.4913 I-8.1321 J5.5137
G2 Y53.5087 I4.9125 J8.5087
G2 X9.825 Y45.0 I4.9125 J-8.5087
G2 X8.1321 Y39.4863 I-9.825 J0.0
G1 F300.0 Z-22.5
G2 F800.0 X-4.9125 Y36.4913 I-8.1321 J5.5137
G2 Y53.5087 I4.9125 J8.5087
G2 X9.825 Y45.0 I4.9125 J-8.5087
G2 X8.1321 Y39.4863 I-9.825 J0.0
G0 Z3.0
G0 X-22.1709 Y33.6714
G1 F300.0 Z-2.0
G2 F800.0 X-21.9948 Y31.8198 I-9.649 J-1.8516
G2 X-36.7323 Y23.3111 I-9.825 J0.0
G2 Y40.3285 I4.9125 J8.5087
G2 X-22.1709 Y33.6714 I4.9125 J-8.5087
G1 F300.0 Z-4.0
G2 F800.0 X-21.9948 Y31.8198 I-9.649 J-1.8516
G2 X-36.7323 Y23.3111 I-9.825 J0.0
G2 Y40.3285 I4.9125 J8.5087
G2 X-22.1709 Y33.6714 I4.9125 J-8.5087
G1 F300.0 Z-6.0
G2 F800.0 X-21.9948 Y31.8198 I-9.649 J-1.8516
G2 X-36.7323 Y23.3111 I-9.825 J0.0
G2 Y40.3285 I4.9125 J8.5087
G2 X-22.1709 Y33.6714 I4.9125 J-8.5087
G1 F300.0 Z-8.0
G2 F800.0 X-21.9948 Y31.8198 I-9.649 J-1.8516
G2 X-36.7323 Y23.3111 I-9.825 J0.0
G2 Y40.3285 I4.9125 J8.5087
G2 X-22.1709 Y33.6714 I4.9125 J-8.5087
G1 F300.0 Z-10.0
G2 F800.0 X-21.9948 Y31.8198 I-9.649 J-1.8516
G2 X-36.7323 Y23.3111 I-9.825 J0.0
G2 Y40.3285 I4.9125 J8.5087
G2 X-22.1709 Y33.6714 I4.9125 J-8.5087
G1 F300.0 Z-12.0
G2 F800.0 X-21.9948 Y31.8198 I-9.649 J-1.8516
G2 X-36.7323 Y23.3111 I-9.825 J0.0
G2 Y40.3285 I4.9125 J8.5087
G2 X-22.1709 Y33.6714 I4.9125 J-8.5087
G1 F300.0 Z-14.0
G2 F800.0 X-21.9948 Y31.8198 I-9.649 J-1.8516
G2 X-36.7323 Y23.3111 I-9.825 J0.0
G2 Y40.3285 I4.9125 J8.5087
G2 X-22.1709 Y33.6714 I4.9125 J-8.5087
G1 F300.0 Z-16.0
G2 F800.0 X-21.9948 Y31.8198 I-9.649 J-1.8516
G2 X-36.7323 Y23.3111 I-9.825 J0.0
G2 Y40.3285 I4.9125 J8.5087
G2 X-22.1709 Y33.6714 I4.9125 J-8.5087
G1 F300.0 Z-18.0
G2 F800.0 X-21.9948 Y31.8198 I-9.649 J-1.8516
G2 X-36.7323 Y23.3111 I-9.825 J0.0
G2 Y40.3285 I4.9125 J8.5087
G2 X-22.1709 Y33.6714 I4.9125 J-8.5087
G1 F300.0 Z-20.0
G2 F800.0 X-21.9948 Y31.8198 I-9.649 J-1.8516
G2 X-36.7323 Y23.3111 I-9.825 J0.0
G2 Y40.3285 I4.9125 J8.5087
G2 X-22.1709 Y33.6714 I4.9125 J-8.5087
G1 F300.0 Z-22.0
G2 F800.0 X-21.9948 Y31.8198 I-9.649 J-1.8516
G2 X-36.7323 Y23.3111 I-9.825 J0.0
G2 Y40.3285 I4.9125 J8.5087
G2 X-22.1709 Y33.6714 I4.9125 J-8.5087
G1 F300.0 Z-22.5
G2 F800.0 X-21.9948 Y31.8198 I-9.649 J-1.8516
G2 X-36.7323 Y23.3111 I-9.825 J0.0
G2 Y40.3285 I4.9125 J8.5087
G2 X-22.1709 Y33.6714 I4.9125 J-8.5087
G0 Z3.0
G0 X-0.9761 Y1.4825
G1 F300.0 Z-2.0
G2 F800.0 X-0.8875 Y1.5372 I0.9761 J-1.4825
G2 X1.775 Y0.0 I0.8875 J-1.5372
G2 X-0.8875 Y-1.5372 I-1.775 J0.0
G2 X-0.9761 Y1.4825 I0.8875 J1.5372
G1 F300.0 Z-4.0
G2 F800.0 X-0.8875 Y1.5372 I0.9761 J-1.4825
G2 X1.775 Y0.0 I0.8875 J-1.5372
G2 X-0.8875 Y-1.5372 I-1.775 J0.0
G2 X-0.9761 Y1.4825 I0.8875 J1.5372
G1 F300.0 Z-6.0
G2 F800.0 X-0.8875 Y1.5372 I0.9761 J-1.4825
G2 X1.775 Y0.0 I0.8875 J-1.5372
G2 X-0.8875 Y-1.5372 I-1.775 J0.0
G2 X-0.9761 Y1.4825 I0.8875 J1.5372
G1 F300.0 Z-8.0
G2 F800.0 X-0.8875 Y1.5372 I0.9761 J-1.4825
G2 X1.775 Y0.0 I0.8875 J-1.5372
G2 X-0.8875 Y-1.5372 I-1.775 J0.0
G2 X-0.9761 Y1.4825 I0.8875 J1.5372
G1 F300.0 Z-10.0
G2 F800.0 X-0.8875 Y1.5372 I0.9761 J-1.4825
G2 X1.775 Y0.0 I0.8875 J-1.5372
G2 X-0.8875 Y-1.5372 I-1.775 J0.0
G2 X-0.9761 Y1.4825 I0.8875 J1.5372
G1 F300.0 Z-12.0
G2 F800.0 X-0.8875 Y1.5372 I0.9761 J-1.4825
G2 X1.775 Y0.0 I0.8875 J-1.5372
G2 X-0.8875 Y-1.5372 I-1.775 J0.0
G2 X-0.9761 Y1.4825 I0.8875 J1.5372
G1 F300.0 Z-14.0
G2 F800.0 X-0.8875 Y1.5372 I0.9761 J-1.4825
G2 X1.775 Y0.0 I0.8875 J-1.5372
G2 X-0.8875 Y-1.5372 I-1.775 J0.0
G2 X-0.9761 Y1.4825 I0.8875 J1.5372
G1 F300.0 Z-16.0
G2 F800.0 X-0.8875 Y1.5372 I0.9761 J-1.4825
G2 X1.775 Y0.0 I0.8875 J-1.5372
G2 X-0.8875 Y-1.5372 I-1.775 J0.0
G2 X-0.9761 Y1.4825 I0.8875 J1.5372
G1 F300.0 Z-18.0
G2 F800.0 X-0.8875 Y1.5372 I0.9761 J-1.4825
G2 X1.775 Y0.0 I0.8875 J-1.5372
G2 X-0.8875 Y-1.5372 I-1.775 J0.0
G2 X-0.9761 Y1.4825 I0.8875 J1.5372
G1 F300.0 Z-20.0
G2 F800.0 X-0.8875 Y1.5372 I0.9761 J-1.4825
G2 X1.775 Y0.0 I0.8875 J-1.5372
G2 X-0.8875 Y-1.5372 I-1.775 J0.0
G2 X-0.9761 Y1.4825 I0.8875 J1.5372
G1 F300.0 Z-22.0
G2 F800.0 X-0.8875 Y1.5372 I0.9761 J-1.4825
G2 X1.775 Y0.0 I0.8875 J-1.5372
G2 X-0.8875 Y-1.5372 I-1.775 J0.0
G2 X-0.9761 Y1.4825 I0.8875 J1.5372
G1 F300.0 Z-22.5
G2 F800.0 X-0.8875 Y1.5372 I0.9761 J-1.4825
G2 X1.775 Y0.0 I0.8875 J-1.5372
G2 X-0.8875 Y-1.5372 I-1.775 J0.0
G2 X-0.9761 Y1.4825 I0.8875 J1.5372
( Cut )
S1000
G0 Z3.0
G0 X68.0 Y0.0
G1 F300.0 Z-2.0
G3 F800.0 X-34.0 Y58.8897 I-68.0 J0.0
G3 Y-58.8897 I34.0 J-58.8897
G3 X68.0 Y0.0 I34.0 J58.8897
G1 F300.0 Z-4.0
G3 F800.0 X-34.0 Y58.8897 I-68.0 J0.0
G3 Y-58.8897 I34.0 J-58.8897
G3 X68.0 Y0.0 I34.0 J58.8897
G1 F300.0 Z-6.0
G3 F800.0 X-34.0 Y58.8897 I-68.0 J0.0
G3 Y-58.8897 I34.0 J-58.8897
G3 X68.0 Y0.0 I34.0 J58.8897
G1 F300.0 Z-8.0
G3 F800.0 X-34.0 Y58.8897 I-68.0 J0.0
G3 Y-58.8897 I34.0 J-58.8897
G3 X68.0 Y0.0 I34.0 J58.8897
G1 F300.0 Z-10.0
G3 F800.0 X-34.0 Y58.8897 I-68.0 J0.0
G3 Y-58.8897 I34.0 J-58.8897
G3 X68.0 Y0.0 I34.0 J58.8897
G1 F300.0 Z-12.0
G3 F800.0 X-34.0 Y58.8897 I-68.0 J0.0
G3 Y-58.8897 I34.0 J-58.8897
G3 X68.0 Y0.0 I34.0 J58.8897
G1 F300.0 Z-14.0
G3 F800.0 X-34.0 Y58.8897 I-68.0 J0.0
G3 Y-58.8897 I34.0 J-58.8897
G3 X68.0 Y0.0 I34.0 J58.8897
G1 F300.0 Z-16.0
G3 F800.0 X-34.0 Y58.8897 I-68.0 J0.0
G3 Y-58.8897 I34.0 J-58.8897
G3 X68.0 Y0.0 I34.0 J58.8897
G1 F300.0 Z-17.5
G3 F800.0 X67.7772 Y5.5 I-68.0 J0.0
G1 F300.0 Z-18.0
G3 F800.0 X56.1636 Y38.3361 I-67.7772 J-5.5
G0 Z-17.5
G3 X49.2476 Y46.89 I-56.1636 J-38.3361
G1 F300.0 Z-18.0
G3 F800.0 X-34.0 Y58.8897 I-49.2476 J-46.89
G3 X-46.6991 Y49.4287 I34.0 J-58.8897
G0 Z-17.5
G3 X-54.0577 Y41.2524 I46.6991 J-49.4287
G1 F300.0 Z-18.0
G3 F800.0 X-67.856 Y4.4236 I54.0577 J-41.2524
G0 Z-17.5
G3 X-67.6814 Y-6.575 I67.856 J-4.4236
G1 F300.0 Z-18.0
G3 F800.0 X-58.7159 Y-34.2993 I67.6814 J6.575
G0 Z-17.5
G3 X-52.4174 Y-43.3176 I58.7159 J34.2993
G1 F300.0 Z-18.0
G3 F800.0 X-34.0 Y-58.8897 I52.4174 J43.3176
G3 X55.9468 Y-38.6517 I34.0 J58.8897
G0 Z-17.5
G3 X61.4468 Y-29.1255 I-55.9468 J38.6517
G1 F300.0 Z-18.0
G3 F800.0 X67.7772 Y-5.5 I-61.4468 J29.1255
G0 Z-17.5
G3 X68.0 Y0.0 I-67.7772 J5.5
G3 X67.7772 Y5.5 I-68.0 J0.0
G1 F300.0 Z-20.0
G3 F800.0 X56.1636 Y38.3361 I-67.7772 J-5.5
G0 Z-17.5
G3 X49.2476 Y46.89 I-56.1636 J-38.3361
G1 F300.0 Z-20.0
G3 F800.0 X-34.0 Y58.8897 I-49.2476 J-46.89
G3 X-46.6991 Y49.4287 I34.0 J-58.8897
G0 Z-17.5
G3 X-54.0577 Y41.2524 I46.6991 J-49.4287
G1 F300.0 Z-20.0
G3 F800.0 X-67.856 Y4.4236 I54.0577 J-41.2524
G0 Z-17.5
G3 X-67.6814 Y-6.575 I67.856 J-4.4236
G1 F300.0 Z-20.0
G3 F800.0 X-58.7159 Y-34.2993 I67.6814 J6.575
G0 Z-17.5
G3 X-52.4174 Y-43.3176 I58.7159 J34.2993
G1 F300.0 Z-20.0
G3 F800.0 X-34.0 Y-58.8897 I52.4174 J43.3176
G3 X55.9468 Y-38.6517 I34.0 J58.8897
G0 Z-17.5
G3 X61.4468 Y-29.1255 I-55.9468 J38.6517
G1 F300.0 Z-20.0
G3 F800.0 X67.7772 Y-5.5 I-61.4468 J29.1255
G0 Z-17.5
G3 X68.0 Y0.0 I-67.7772 J5.5
G3 X67.7772 Y5.5 I-68.0 J0.0
G1 F300.0 Z-22.0
G3 F800.0 X56.1636 Y38.3361 I-67.7772 J-5.5
G0 Z-17.5
G3 X49.2476 Y46.89 I-56.1636 J-38.3361
G1 F300.0 Z-22.0
G3 F800.0 X-34.0 Y58.8897 I-49.2476 J-46.89
G3 X-46.6991 Y49.4287 I34.0 J-58.8897
G0 Z-17.5
G3 X-54.0577 Y41.2524 I46.6991 J-49.4287
G1 F300.0 Z-22.0
G3 F800.0 X-67.856 Y4.4236 I54.0577 J-41.2524
G0 Z-17.5
G3 X-67.6814 Y-6.575 I67.856 J-4.4236
G1 F300.0 Z-22.0
G3 F800.0 X-58.7159 Y-34.2993 I67.6814 J6.575
G0 Z-17.5
G3 X-52.4174 Y-43.3176 I58.7159 J34.2993
G1 F300.0 Z-22.0
G3 F800.0 X-34.0 Y-58.8897 I52.4174 J43.3176
G3 X55.9468 Y-38.6517 I34.0 J58.8897
G0 Z-17.5
G3 X61.4468 Y-29.1255 I-55.9468 J38.6517
G1 F300.0 Z-22.0
G3 F800.0 X67.7772 Y-5.5 I-61.4468 J29.1255
G0 Z-17.5
G3 X68.0 Y0.0 I-67.7772 J5.5
G3 X67.7772 Y5.5 I-68.0 J0.0
G1 F300.0 Z-22.5
G3 F800.0 X56.1636 Y38.3361 I-67.7772 J-5.5
G0 Z-17.5
G3 X49.2476 Y46.89 I-56.1636 J-38.3361
G1 F300.0 Z-22.5
G3 F800.0 X-34.0 Y58.8897 I-49.2476 J-46.89
G3 X-46.6991 Y49.4287 I34.0 J-58.8897
G0 Z-17.5
G3 X-54.0577 Y41.2524 I46.6991 J-49.4287
G1 F300.0 Z-22.5
G3 F800.0 X-67.856 Y4.4236 I54.0577 J-41.2524
G0 Z-17.5
G3 X-67.6814 Y-6.575 I67.856 J-4.4236
G1 F300.0 Z-22.5
G3 F800.0 X-58.7159 Y-34.2993 I67.6814 J6.575
G0 Z-17.5
G3 X-52.4174 Y-43.3176 I58.7159 J34.2993
G1 F300.0 Z-22.5
G3 F800.0 X-34.0 Y-58.8897 I52.4174 J43.3176
G3 X55.9468 Y-38.6517 I34.0 J58.8897
G0 Z-17.5
G3 X61.4468 Y-29.1255 I-55.9468 J38.6517
G1 F300.0 Z-22.5
G3 F800.0 X67.7772 Y-5.5 I-61.4468 J29.1255
G0 Z-17.5
G3 X68.0 Y0.0 I-67.7772 J5.5
G0 Z3.0
M5
M30
