( Made using CamBam - http://www.cambam.co.uk )
( carussel 5/6/2016 10:44:19 AM )
( T3 : 2.95 )
G21 G90 G64 G40
G0 Z3.0
( T3 : 2.95 )
T3 M6
( Loecher )
G17
M3 S1000
G0 X1.525 Y20.0
G1 F300.0 Z-1.0
G2 F800.0 X-0.7625 Y18.6793 I-1.525 J0.0
G2 Y21.3207 I0.7625 J1.3207
G2 X1.525 Y20.0 I0.7625 J-1.3207
G1 F300.0 Z-2.0
G2 F800.0 X-0.7625 Y18.6793 I-1.525 J0.0
G2 Y21.3207 I0.7625 J1.3207
G2 X1.525 Y20.0 I0.7625 J-1.3207
G1 F300.0 Z-3.0
G2 F800.0 X-0.7625 Y18.6793 I-1.525 J0.0
G2 Y21.3207 I0.7625 J1.3207
G2 X1.525 Y20.0 I0.7625 J-1.3207
G1 F300.0 Z-4.0
G2 F800.0 X-0.7625 Y18.6793 I-1.525 J0.0
G2 Y21.3207 I0.7625 J1.3207
G2 X1.525 Y20.0 I0.7625 J-1.3207
G1 F300.0 Z-5.0
G2 F800.0 X-0.7625 Y18.6793 I-1.525 J0.0
G2 Y21.3207 I0.7625 J1.3207
G2 X1.525 Y20.0 I0.7625 J-1.3207
G1 F300.0 Z-6.0
G2 F800.0 X-0.7625 Y18.6793 I-1.525 J0.0
G2 Y21.3207 I0.7625 J1.3207
G2 X1.525 Y20.0 I0.7625 J-1.3207
G1 F300.0 Z-7.0
G2 F800.0 X-0.7625 Y18.6793 I-1.525 J0.0
G2 Y21.3207 I0.7625 J1.3207
G2 X1.525 Y20.0 I0.7625 J-1.3207
G1 F300.0 Z-8.0
G2 F800.0 X-0.7625 Y18.6793 I-1.525 J0.0
G2 Y21.3207 I0.7625 J1.3207
G2 X1.525 Y20.0 I0.7625 J-1.3207
G1 F300.0 Z-9.0
G2 F800.0 X-0.7625 Y18.6793 I-1.525 J0.0
G2 Y21.3207 I0.7625 J1.3207
G2 X1.525 Y20.0 I0.7625 J-1.3207
G0 Z3.0
G0 X0.211 Y2.767
G1 F300.0 Z-1.0
G2 F800.0 X2.775 Y0.0 I-0.211 J-2.767
G2 X-1.3875 Y-2.4032 I-2.775 J0.0
G2 Y2.4032 I1.3875 J2.4032
G2 X0.211 Y2.767 I1.3875 J-2.4032
G1 F300.0 Z-2.0
G2 F800.0 X2.775 Y0.0 I-0.211 J-2.767
G2 X-1.3875 Y-2.4032 I-2.775 J0.0
G2 Y2.4032 I1.3875 J2.4032
G2 X0.211 Y2.767 I1.3875 J-2.4032
G1 F300.0 Z-3.0
G2 F800.0 X2.775 Y0.0 I-0.211 J-2.767
G2 X-1.3875 Y-2.4032 I-2.775 J0.0
G2 Y2.4032 I1.3875 J2.4032
G2 X0.211 Y2.767 I1.3875 J-2.4032
G1 F300.0 Z-4.0
G2 F800.0 X2.775 Y0.0 I-0.211 J-2.767
G2 X-1.3875 Y-2.4032 I-2.775 J0.0
G2 Y2.4032 I1.3875 J2.4032
G2 X0.211 Y2.767 I1.3875 J-2.4032
G1 F300.0 Z-5.0
G2 F800.0 X2.775 Y0.0 I-0.211 J-2.767
G2 X-1.3875 Y-2.4032 I-2.775 J0.0
G2 Y2.4032 I1.3875 J2.4032
G2 X0.211 Y2.767 I1.3875 J-2.4032
G1 F300.0 Z-6.0
G2 F800.0 X2.775 Y0.0 I-0.211 J-2.767
G2 X-1.3875 Y-2.4032 I-2.775 J0.0
G2 Y2.4032 I1.3875 J2.4032
G2 X0.211 Y2.767 I1.3875 J-2.4032
G1 F300.0 Z-7.0
G2 F800.0 X2.775 Y0.0 I-0.211 J-2.767
G2 X-1.3875 Y-2.4032 I-2.775 J0.0
G2 Y2.4032 I1.3875 J2.4032
G2 X0.211 Y2.767 I1.3875 J-2.4032
G1 F300.0 Z-8.0
G2 F800.0 X2.775 Y0.0 I-0.211 J-2.767
G2 X-1.3875 Y-2.4032 I-2.775 J0.0
G2 Y2.4032 I1.3875 J2.4032
G2 X0.211 Y2.767 I1.3875 J-2.4032
G1 F300.0 Z-9.0
G2 F800.0 X2.775 Y0.0 I-0.211 J-2.767
G2 X-1.3875 Y-2.4032 I-2.775 J0.0
G2 Y2.4032 I1.3875 J2.4032
G2 X0.211 Y2.767 I1.3875 J-2.4032
G0 Z3.0
G0 X0.0141 Y-18.4751
G1 F300.0 Z-1.0
G2 F800.0 X1.525 Y-20.0 I-0.0141 J-1.5249
G2 X-0.7625 Y-21.3207 I-1.525 J0.0
G2 Y-18.6793 I0.7625 J1.3207
G2 X0.0141 Y-18.4751 I0.7625 J-1.3207
G1 F300.0 Z-2.0
G2 F800.0 X1.525 Y-20.0 I-0.0141 J-1.5249
G2 X-0.7625 Y-21.3207 I-1.525 J0.0
G2 Y-18.6793 I0.7625 J1.3207
G2 X0.0141 Y-18.4751 I0.7625 J-1.3207
G1 F300.0 Z-3.0
G2 F800.0 X1.525 Y-20.0 I-0.0141 J-1.5249
G2 X-0.7625 Y-21.3207 I-1.525 J0.0
G2 Y-18.6793 I0.7625 J1.3207
G2 X0.0141 Y-18.4751 I0.7625 J-1.3207
G1 F300.0 Z-4.0
G2 F800.0 X1.525 Y-20.0 I-0.0141 J-1.5249
G2 X-0.7625 Y-21.3207 I-1.525 J0.0
G2 Y-18.6793 I0.7625 J1.3207
G2 X0.0141 Y-18.4751 I0.7625 J-1.3207
G1 F300.0 Z-5.0
G2 F800.0 X1.525 Y-20.0 I-0.0141 J-1.5249
G2 X-0.7625 Y-21.3207 I-1.525 J0.0
G2 Y-18.6793 I0.7625 J1.3207
G2 X0.0141 Y-18.4751 I0.7625 J-1.3207
G1 F300.0 Z-6.0
G2 F800.0 X1.525 Y-20.0 I-0.0141 J-1.5249
G2 X-0.7625 Y-21.3207 I-1.525 J0.0
G2 Y-18.6793 I0.7625 J1.3207
G2 X0.0141 Y-18.4751 I0.7625 J-1.3207
G1 F300.0 Z-7.0
G2 F800.0 X1.525 Y-20.0 I-0.0141 J-1.5249
G2 X-0.7625 Y-21.3207 I-1.525 J0.0
G2 Y-18.6793 I0.7625 J1.3207
G2 X0.0141 Y-18.4751 I0.7625 J-1.3207
G1 F300.0 Z-8.0
G2 F800.0 X1.525 Y-20.0 I-0.0141 J-1.5249
G2 X-0.7625 Y-21.3207 I-1.525 J0.0
G2 Y-18.6793 I0.7625 J1.3207
G2 X0.0141 Y-18.4751 I0.7625 J-1.3207
G1 F300.0 Z-9.0
G2 F800.0 X1.525 Y-20.0 I-0.0141 J-1.5249
G2 X-0.7625 Y-21.3207 I-1.525 J0.0
G2 Y-18.6793 I0.7625 J1.3207
G2 X0.0141 Y-18.4751 I0.7625 J-1.3207
( Cut )
S1000
G0 Z3.0
G0 X-15.0 Y-29.0
G1 F300.0 Z-1.0
G1 F800.0 X15.0
G3 X16.5 Y-27.5 I0.0 J1.5
G1 Y27.5
G3 X15.0 Y29.0 I-1.5 J0.0
G1 X-15.0
G3 X-16.5 Y27.5 I0.0 J-1.5
G1 Y-27.5
G3 X-15.0 Y-29.0 I1.5 J0.0
G1 F300.0 Z-2.0
G1 F800.0 X15.0
G3 X16.5 Y-27.5 I0.0 J1.5
G1 Y27.5
G3 X15.0 Y29.0 I-1.5 J0.0
G1 X-15.0
G3 X-16.5 Y27.5 I0.0 J-1.5
G1 Y-27.5
G3 X-15.0 Y-29.0 I1.5 J0.0
G1 F300.0 Z-3.0
G1 F800.0 X15.0
G3 X16.5 Y-27.5 I0.0 J1.5
G1 Y27.5
G3 X15.0 Y29.0 I-1.5 J0.0
G1 X-15.0
G3 X-16.5 Y27.5 I0.0 J-1.5
G1 Y-27.5
G3 X-15.0 Y-29.0 I1.5 J0.0
G1 F300.0 Z-4.0
G1 F800.0 X15.0
G3 X16.5 Y-27.5 I0.0 J1.5
G1 Y27.5
G3 X15.0 Y29.0 I-1.5 J0.0
G1 X-15.0
G3 X-16.5 Y27.5 I0.0 J-1.5
G1 Y-27.5
G3 X-15.0 Y-29.0 I1.5 J0.0
G1 F300.0 Z-5.0
G1 F800.0 X15.0
G3 X16.5 Y-27.5 I0.0 J1.5
G1 Y27.5
G3 X15.0 Y29.0 I-1.5 J0.0
G1 X-15.0
G3 X-16.5 Y27.5 I0.0 J-1.5
G1 Y-27.5
G3 X-15.0 Y-29.0 I1.5 J0.0
G1 F300.0 Z-6.0
G1 F800.0 X15.0
G3 X16.5 Y-27.5 I0.0 J1.5
G1 Y27.5
G3 X15.0 Y29.0 I-1.5 J0.0
G1 X-15.0
G3 X-16.5 Y27.5 I0.0 J-1.5
G1 Y-27.5
G3 X-15.0 Y-29.0 I1.5 J0.0
G1 F300.0 Z-7.0
G1 F800.0 X-3.0
G1 X0.0 Z-6.5
G1 X3.0 Z-7.0
G1 X15.0
G3 X16.5 Y-27.5 I0.0 J1.5
G1 Y-0.5
G1 Y2.5 Z-6.5
G1 Y5.5 Z-7.0
G1 Y27.5
G3 X15.0 Y29.0 I-1.5 J0.0
G1 X3.0
G1 X0.0 Z-6.5
G1 X-3.0 Z-7.0
G1 X-15.0
G3 X-16.5 Y27.5 I0.0 J-1.5
G1 Y5.5
G1 Y2.5 Z-6.5
G1 Y-0.5 Z-7.0
G1 Y-27.5
G3 X-15.0 Y-29.0 I1.5 J0.0
G1 F300.0 Z-8.0
G1 F800.0 X-3.0
G1 X0.0 Z-6.5
G1 X3.0 Z-8.0
G1 X15.0
G3 X16.5 Y-27.5 I0.0 J1.5
G1 Y-0.5
G1 Y2.5 Z-6.5
G1 Y5.5 Z-8.0
G1 Y27.5
G3 X15.0 Y29.0 I-1.5 J0.0
G1 X3.0
G1 X0.0 Z-6.5
G1 X-3.0 Z-8.0
G1 X-15.0
G3 X-16.5 Y27.5 I0.0 J-1.5
G1 Y5.5
G1 Y2.5 Z-6.5
G1 Y-0.5 Z-8.0
G1 Y-27.5
G3 X-15.0 Y-29.0 I1.5 J0.0
G1 F300.0 Z-9.0
G1 F800.0 X-3.0
G1 X0.0 Z-6.5
G1 X3.0 Z-9.0
G1 X15.0
G3 X16.5 Y-27.5 I0.0 J1.5
G1 Y-0.5
G1 Y2.5 Z-6.5
G1 Y5.5 Z-9.0
G1 Y27.5
G3 X15.0 Y29.0 I-1.5 J0.0
G1 X3.0
G1 X0.0 Z-6.5
G1 X-3.0 Z-9.0
G1 X-15.0
G3 X-16.5 Y27.5 I0.0 J-1.5
G1 Y5.5
G1 Y2.5 Z-6.5
G1 Y-0.5 Z-9.0
G1 Y-27.5
G3 X-15.0 Y-29.0 I1.5 J0.0
G1 F300.0 Z-9.5
G1 F800.0 X-3.0
G1 X0.0 Z-6.5
G1 X3.0 Z-9.5
G1 X15.0
G3 X16.5 Y-27.5 I0.0 J1.5
G1 Y-0.5
G1 Y2.5 Z-6.5
G1 Y5.5 Z-9.5
G1 Y27.5
G3 X15.0 Y29.0 I-1.5 J0.0
G1 X3.0
G1 X0.0 Z-6.5
G1 X-3.0 Z-9.5
G1 X-15.0
G3 X-16.5 Y27.5 I0.0 J-1.5
G1 Y5.5
G1 Y2.5 Z-6.5
G1 Y-0.5 Z-9.5
G1 Y-27.5
G3 X-15.0 Y-29.0 I1.5 J0.0
G0 Z3.0
M5
M30
