( Made using CamBam - http://www.cambam.co.uk )
( ColletAdapter 4/9/2016 7:26:45 PM )
( T3 : 2.95 )
G21 G90 G64 G40
G0 Z3.0
( T3 : 2.95 )
T3 M6
( Collet )
G17
M3 S1000
G0 X7.875 Y0.0
G1 F300.0 Z-0.6
G2 F800.0 X-3.9375 Y-6.82 I-7.875 J0.0
G2 Y6.82 I3.9375 J6.82
G2 X7.875 Y0.0 I3.9375 J-6.82
G1 F300.0 Z-1.2
G2 F800.0 X-3.9375 Y-6.82 I-7.875 J0.0
G2 Y6.82 I3.9375 J6.82
G2 X7.875 Y0.0 I3.9375 J-6.82
G1 F300.0 Z-1.8
G2 F800.0 X-3.9375 Y-6.82 I-7.875 J0.0
G2 Y6.82 I3.9375 J6.82
G2 X7.875 Y0.0 I3.9375 J-6.82
G1 F300.0 Z-2.4
G2 F800.0 X-3.9375 Y-6.82 I-7.875 J0.0
G2 Y6.82 I3.9375 J6.82
G2 X7.875 Y0.0 I3.9375 J-6.82
G1 F300.0 Z-2.5
G2 F800.0 X-3.9375 Y-6.82 I-7.875 J0.0
G2 Y6.82 I3.9375 J6.82
G2 X7.875 Y0.0 I3.9375 J-6.82
G0 Z3.0
M5
M30
