( Made using CamBam - http://www.cambam.co.uk )
( ColletAdapter 4/10/2016 10:20:45 AM )
( T2 : 2.0 )
G21 G90 G64 G40
G0 Z3.0
( T2 : 2.0 )
T2 M6
( Collet )
G17
M3 S1000
G0 X8.35 Y0.0
G1 F300.0 Z-0.6
G2 F800.0 X-4.175 Y-7.2313 I-8.35 J0.0
G2 Y7.2313 I4.175 J7.2313
G2 X8.35 Y0.0 I4.175 J-7.2313
G1 F300.0 Z-1.2
G2 F800.0 X-4.175 Y-7.2313 I-8.35 J0.0
G2 Y7.2313 I4.175 J7.2313
G2 X8.35 Y0.0 I4.175 J-7.2313
G1 F300.0 Z-1.8
G2 F800.0 X-4.175 Y-7.2313 I-8.35 J0.0
G2 Y7.2313 I4.175 J7.2313
G2 X8.35 Y0.0 I4.175 J-7.2313
G1 F300.0 Z-2.4
G2 F800.0 X-4.175 Y-7.2313 I-8.35 J0.0
G2 Y7.2313 I4.175 J7.2313
G2 X8.35 Y0.0 I4.175 J-7.2313
G1 F300.0 Z-2.5
G2 F800.0 X-4.175 Y-7.2313 I-8.35 J0.0
G2 Y7.2313 I4.175 J7.2313
G2 X8.35 Y0.0 I4.175 J-7.2313
( Cut )
S1000
G0 Z3.0
G0 X12.6491 Y3.0
G1 F300.0 Z-0.6
G3 F800.0 X-6.5 Y11.2583 I-12.6491 J-3.0
G3 X-12.6491 Y3.0 I6.5 J-11.2583
G1 X-18.0
G3 X-19.0 Y2.0 I0.0 J-1.0
G1 Y-3.0
G3 X-18.0 Y-4.0 I1.0 J0.0
G1 X-12.3693
G3 X-6.5 Y-11.2583 I12.3693 J4.0
G3 X12.3693 Y-4.0 I6.5 J11.2583
G1 X17.0
G3 X18.0 Y-3.0 I0.0 J1.0
G1 Y2.0
G3 X17.0 Y3.0 I-1.0 J0.0
G1 X12.6491
G1 F300.0 Z-1.2
G3 F800.0 X-6.5 Y11.2583 I-12.6491 J-3.0
G3 X-12.6491 Y3.0 I6.5 J-11.2583
G1 X-18.0
G3 X-19.0 Y2.0 I0.0 J-1.0
G1 Y-3.0
G3 X-18.0 Y-4.0 I1.0 J0.0
G1 X-12.3693
G3 X-6.5 Y-11.2583 I12.3693 J4.0
G3 X12.3693 Y-4.0 I6.5 J11.2583
G1 X17.0
G3 X18.0 Y-3.0 I0.0 J1.0
G1 Y2.0
G3 X17.0 Y3.0 I-1.0 J0.0
G1 X12.6491
G1 F300.0 Z-1.8
G3 F800.0 X-6.5 Y11.2583 I-12.6491 J-3.0
G3 X-12.6491 Y3.0 I6.5 J-11.2583
G1 X-18.0
G3 X-19.0 Y2.0 I0.0 J-1.0
G1 Y-3.0
G3 X-18.0 Y-4.0 I1.0 J0.0
G1 X-12.3693
G3 X-6.5 Y-11.2583 I12.3693 J4.0
G3 X12.3693 Y-4.0 I6.5 J11.2583
G1 X17.0
G3 X18.0 Y-3.0 I0.0 J1.0
G1 Y2.0
G3 X17.0 Y3.0 I-1.0 J0.0
G1 X12.6491
G1 F300.0 Z-2.4
G3 F800.0 X-6.5 Y11.2583 I-12.6491 J-3.0
G3 X-12.6491 Y3.0 I6.5 J-11.2583
G1 X-18.0
G3 X-19.0 Y2.0 I0.0 J-1.0
G1 Y-3.0
G3 X-18.0 Y-4.0 I1.0 J0.0
G1 X-12.3693
G3 X-6.5 Y-11.2583 I12.3693 J4.0
G3 X12.3693 Y-4.0 I6.5 J11.2583
G1 X17.0
G3 X18.0 Y-3.0 I0.0 J1.0
G1 Y2.0
G3 X17.0 Y3.0 I-1.0 J0.0
G1 X12.6491
G1 F300.0 Z-2.5
G3 F800.0 X-6.5 Y11.2583 I-12.6491 J-3.0
G3 X-12.6491 Y3.0 I6.5 J-11.2583
G1 X-18.0
G3 X-19.0 Y2.0 I0.0 J-1.0
G1 Y-3.0
G3 X-18.0 Y-4.0 I1.0 J0.0
G1 X-12.3693
G3 X-6.5 Y-11.2583 I12.3693 J4.0
G3 X12.3693 Y-4.0 I6.5 J11.2583
G1 X17.0
G3 X18.0 Y-3.0 I0.0 J1.0
G1 Y2.0
G3 X17.0 Y3.0 I-1.0 J0.0
G1 X12.6491
G0 Z3.0
M5
M30
