( Made using CamBam - http://www.cambam.co.uk )
( ColletAdapter 4/6/2016 5:42:04 PM )
( T3 : 2.95 )
G21 G90 G64 G40
G0 Z3.0
( T3 : 2.95 )
T3 M6
( Collet11 )
G17
M3 S1000
G0 X7.975 Y0.0
G1 F300.0 Z-0.8
G2 F800.0 X-3.9875 Y-6.9066 I-7.975 J0.0
G2 Y6.9066 I3.9875 J6.9066
G2 X7.975 Y0.0 I3.9875 J-6.9066
G1 F300.0 Z-1.6
G2 F800.0 X-3.9875 Y-6.9066 I-7.975 J0.0
G2 Y6.9066 I3.9875 J6.9066
G2 X7.975 Y0.0 I3.9875 J-6.9066
G1 F300.0 Z-2.4
G2 F800.0 X-3.9875 Y-6.9066 I-7.975 J0.0
G2 Y6.9066 I3.9875 J6.9066
G2 X7.975 Y0.0 I3.9875 J-6.9066
G1 F300.0 Z-2.5
G2 F800.0 X-3.9875 Y-6.9066 I-7.975 J0.0
G2 Y6.9066 I3.9875 J6.9066
G2 X7.975 Y0.0 I3.9875 J-6.9066
( Cut )
S1000
G0 Z3.0
G0 X19.475
G1 F300.0 Z-0.8
G3 F800.0 X-13.4088 Y1.475 I-16.475 J0.0
G1 X-18.0
G3 X-19.475 Y0.0 I0.0 J-1.475
G3 X5.2375 Y-14.2678 I16.475 J0.0
G3 X13.4088 Y-1.475 I-8.2375 J14.2678
G1 X18.0
G3 X19.475 Y0.0 I0.0 J1.475
G1 F300.0 Z-1.6
G3 F800.0 X-13.4088 Y1.475 I-16.475 J0.0
G1 X-18.0
G3 X-19.475 Y0.0 I0.0 J-1.475
G3 X5.2375 Y-14.2678 I16.475 J0.0
G3 X13.4088 Y-1.475 I-8.2375 J14.2678
G1 X18.0
G3 X19.475 Y0.0 I0.0 J1.475
G1 F300.0 Z-2.4
G3 F800.0 X-13.4088 Y1.475 I-16.475 J0.0
G1 X-18.0
G3 X-19.475 Y0.0 I0.0 J-1.475
G3 X5.2375 Y-14.2678 I16.475 J0.0
G3 X13.4088 Y-1.475 I-8.2375 J14.2678
G1 X18.0
G3 X19.475 Y0.0 I0.0 J1.475
G1 F300.0 Z-2.5
G3 F800.0 X-13.4088 Y1.475 I-16.475 J0.0
G1 X-18.0
G3 X-19.475 Y0.0 I0.0 J-1.475
G3 X5.2375 Y-14.2678 I16.475 J0.0
G3 X13.4088 Y-1.475 I-8.2375 J14.2678
G1 X18.0
G3 X19.475 Y0.0 I0.0 J1.475
G0 Z3.0
M5
M30
